packages/ffe-icons/icons/open/300/sm/view_quilt.svg

<svg xmlns="http://www.w3.org/2000/svg" height="20" viewBox="0 -960 960 960" width="20"><path d="M164.001-324.309v-311.382q0-25.827 19.343-45.067 19.342-19.241 46.503-19.241h500.306q27.161 0 46.503 19.241 19.343 19.24 19.343 45.067v311.382q0 26.527-19.343 45.417-19.342 18.891-46.503 18.891H229.847q-27.161 0-46.503-18.891-19.343-18.89-19.343-45.417Zm244.306-181.69H744v-129.692q0-4.616-4.231-8.463-4.231-3.846-9.616-3.846H408.307v142.001ZM601.768-312h128.385q5.385 0 9.616-3.846 4.231-3.847 4.231-8.463v-129.692H601.768V-312Zm-193.461 0H549.77v-142.001H408.307V-312Zm-178.46 0h126.462v-336H229.847q-5.385 0-9.616 3.846-4.231 3.847-4.231 8.463v311.382q0 4.616 4.231 8.463 4.231 3.846 9.616 3.846Z"/></svg>

<svg xmlns="http://www.w3.org/2000/svg" height="20" viewBox="0 -960 960 960" width="20"><path d="M164-324.31v-311.38q0-25.83 19.34-45.07Q202.69-700 229.85-700h500.3q27.16 0 46.51 19.24Q796-661.52 796-635.69v311.38q0 26.53-19.34 45.42Q757.31-260 730.15-260h-500.3q-27.16 0-46.51-18.89Q164-297.78 164-324.31ZM408.31-506H744v-129.69q0-4.62-4.23-8.46-4.23-3.85-9.62-3.85H408.31v142Zm193.46 194h128.38q5.39 0 9.62-3.85 4.23-3.84 4.23-8.46V-454H601.77v142Zm-193.46 0h141.46v-142H408.31v142Zm-178.46 0h126.46v-336H229.85q-5.39 0-9.62 3.85-4.23 3.84-4.23 8.46v311.38q0 4.62 4.23 8.46 4.23 3.85 9.62 3.85Z"/></svg>
